svg/monochrome/signal-alt.svg

<svg xmlns="http://www.w3.org/2000/svg" viewBox="0 0 24 24"><path class="uim-primary" d="M5 22a.99974.99974 0 0 1-1-1V19a1 1 0 0 1 2 0v2A.99974.99974 0 0 1 5 22zM10 22a.99974.99974 0 0 1-1-1V15a1 1 0 0 1 2 0v6A.99974.99974 0 0 1 10 22zM15 22a.99974.99974 0 0 1-1-1V10a1 1 0 0 1 2 0V21A.99974.99974 0 0 1 15 22zM20 22a.99974.99974 0 0 1-1-1V3a1 1 0 0 1 2 0V21A.99974.99974 0 0 1 20 22z"/></svg>

<svg xmlns="http://www.w3.org/2000/svg" viewBox="0 0 24 24"><path class="uim-primary" d="M5 22a1 1 0 0 1-1-1v-2a1 1 0 0 1 2 0v2a1 1 0 0 1-1 1zm5 0a1 1 0 0 1-1-1v-6a1 1 0 0 1 2 0v6a1 1 0 0 1-1 1zm5 0a1 1 0 0 1-1-1V10a1 1 0 0 1 2 0v11a1 1 0 0 1-1 1zm5 0a1 1 0 0 1-1-1V3a1 1 0 0 1 2 0v18a1 1 0 0 1-1 1z"/></svg>
